projects/flag-game/flags/Benin.svg

<svg viewBox="0 0 1000 667" xmlns="http://www.w3.org/2000/svg" xmlns:xlink="http://www.w3.org/1999/xlink"><clipPath id="a"><path d="m0 0h1000v666.71875h-1000zm0 0"/></clipPath><clipPath id="b"><path d="m0 333h1000v333.71875h-1000zm0 0"/></clipPath><clipPath id="c"><path d="m0 0h400v666.71875h-400zm0 0"/></clipPath><g clip-path="url(#a)"><path d="m0 666.667969v-666.667969h1000v666.667969zm0 0" fill="#fcd116" fill-rule="evenodd"/></g><g clip-path="url(#b)"><path d="m0 333.332031h1000v333.335938h-1000zm0 0" fill="#e8112d" fill-rule="evenodd"/></g><g clip-path="url(#c)"><path d="m0 0h400v666.667969h-400zm0 0" fill="#008751" fill-rule="evenodd"/></g></svg>

<?xml version="1.0" encoding="UTF-8"?>
<svg xmlns="http://www.w3.org/2000/svg" xmlns:xlink="http://www.w3.org/1999/xlink" viewBox="0 0 1000 667" version="1.1">
<defs>
<clipPath id="clip1">
  <path d="M 0 0 L 1000 0 L 1000 666.71875 L 0 666.71875 Z M 0 0 "/>
</clipPath>
<clipPath id="clip2">
  <path d="M 0 333 L 1000 333 L 1000 666.71875 L 0 666.71875 Z M 0 333 "/>
</clipPath>
<clipPath id="clip3">
  <path d="M 0 0 L 400 0 L 400 666.71875 L 0 666.71875 Z M 0 0 "/>
</clipPath>
</defs>
<g id="surface179">
<g clip-path="url(#clip1)" clip-rule="nonzero">
<path style=" stroke:none;fill-rule:evenodd;fill:rgb(98.822021%,81.959534%,8.627319%);fill-opacity:1;" d="M 0 666.667969 L 0 0 L 1000 0 L 1000 666.667969 Z M 0 666.667969 "/>
</g>
<g clip-path="url(#clip2)" clip-rule="nonzero">
<path style=" stroke:none;fill-rule:evenodd;fill:rgb(90.979004%,6.666565%,17.64679%);fill-opacity:1;" d="M 0 333.332031 L 1000 333.332031 L 1000 666.667969 L 0 666.667969 Z M 0 333.332031 "/>
</g>
<g clip-path="url(#clip3)" clip-rule="nonzero">
<path style=" stroke:none;fill-rule:evenodd;fill:rgb(0%,52.940369%,31.764221%);fill-opacity:1;" d="M 0 0 L 400 0 L 400 666.667969 L 0 666.667969 Z M 0 0 "/>
</g>
</g>
</svg>
